X:103
T:Merry Making, The
T:A' Chridhealachd
R:Reel
S:Simon Fraser Collection
N:No.36
O:Scottish
M:C
L:1/8
Q:1/4=140
K:F
B|A/B/c c>B Acfc|A/B/c cd _eGGB|A/B/c cB Acfc|e/f/g g>e f2 f:|
|:b|affg a>gfc|egfg eccb|1 affg a>gfc|dbge f2f:|2 afge fdcB|
Afge f2 f||
|:c|A/B/c cf dBBd|A/B/c ce fcac|A/B/c cf dBBd|cbge f2f:|
g|bggb affa|bece cega|bgbg afaf|ecge f2fg|bggb affa|gece fdcB|AfBf cfdf|
e/f/g ge f2f||

